Papirus-GTK/24x24/apps/kaddressbook.svg

<?xml version="1.0" encoding="UTF-8" standalone="no"?>
<!-- Created with Inkscape (http://www.inkscape.org/) -->

<svg
   xmlns:dc="http://purl.org/dc/elements/1.1/"
   xmlns:cc="http://creativecommons.org/ns#"
   xmlns:rdf="http://www.w3.org/1999/02/22-rdf-syntax-ns#"
   xmlns:svg="http://www.w3.org/2000/svg"
   xmlns="http://www.w3.org/2000/svg"
   xmlns:sodipodi="http://sodipodi.sourceforge.net/DTD/sodipodi-0.dtd"
   xmlns:inkscape="http://www.inkscape.org/namespaces/inkscape"
   id="svg2817"
   height="24"
   width="24"
   version="1.0"
   inkscape:version="0.91 r13725"
   sodipodi:docname="kaddressbook.svg">
  <sodipodi:namedview
     pagecolor="#ffffff"
     bordercolor="#666666"
     borderopacity="1"
     objecttolerance="10"
     gridtolerance="10"
     guidetolerance="10"
     inkscape:pageopacity="0"
     inkscape:pageshadow="2"
     inkscape:window-width="1600"
     inkscape:window-height="845"
     id="namedview31"
     showgrid="false"
     inkscape:zoom="1"
     inkscape:cx="6.1545016"
     inkscape:cy="8.5531776"
     inkscape:window-x="0"
     inkscape:window-y="32"
     inkscape:window-maximized="1"
     inkscape:current-layer="svg2817" />
  <metadata
     id="metadata57">
    <rdf:RDF>
      <cc:Work
         rdf:about="">
        <dc:format>image/svg+xml</dc:format>
        <dc:type
           rdf:resource="http://purl.org/dc/dcmitype/StillImage" />
        <dc:title></dc:title>
      </cc:Work>
    </rdf:RDF>
  </metadata>
  <defs
     id="defs2819">
    <clipPath
       id="clipPath4186"
       clipPathUnits="userSpaceOnUse">
      <circle
         id="path4188"
         style="color:#000000"
         cx="286"
         cy="26"
         r="10"
         fill="url(#linearGradient4190)" />
    </clipPath>
  </defs>
  <circle
     id="path4230"
     style="color:#000000;fill:#955400;fill-opacity:1"
     cx="12"
     cy="12"
     r="10" />
  <circle
     id="path4240"
     style="color:#000000;opacity:0;stroke-width:0.45455"
     clip-path="url(#clipPath4186)"
     cx="286"
     transform="translate(-274,-14)"
     cy="26"
     r="10" />
  <circle
     id="path4242"
     style="color:#000000;opacity:0;stroke-width:0.90908998"
     clip-path="url(#clipPath4186)"
     cx="286"
     transform="translate(-274,-14)"
     cy="26"
     r="10" />
  <path
     style="opacity:0.2;fill:#ffffff"
     inkscape:connector-curvature="0"
     id="rect3436"
     d="M 12,2 C 6.4605,2 2.001,6.46 2.001,12 c 0,0.08386 -0.002,0.166645 0,0.25 C 2.1331,6.827 6.5445,2.5 12,2.5 c 5.4555,0 9.867,4.3268 9.999,9.75 0.002,-0.08335 0,-0.16614 0,-0.25 C 21.999,6.46 17.5395,2 12,2 Z" />
  <path
     inkscape:connector-curvature="0"
     id="circle4276"
     style="color:#000000;opacity:0.3"
     d="M 21.9895,11.709 A 10,10 0 0 1 12,21.5 10,10 0 0 1 2.011,11.791 10,10 0 0 0 2,12 10,10 0 0 0 12,22 10,10 0 0 0 22,12 10,10 0 0 0 21.9895,11.709 Z" />
  <g
     style="fill:#000000;fill-opacity:1;opacity:0.2"
     id="g4219"
     transform="translate(0,0.5)">
    <path
       inkscape:connector-curvature="0"
       id="path4221"
       style="color:#000000;text-indent:0;text-decoration:none;text-decoration-line:none;text-transform:none;block-progression:tb;fill:#000000;fill-opacity:1"
       d="M 8.9999999,6.0000001 C 10.65684,6.0000001 12,7.34322 12,8.9999998 12,10.65678 10.65684,12 8.9999999,12 7.34316,12 6,10.65678 6,8.9999998 6,7.34322 7.34316,6.0000001 8.9999999,6.0000001 Z" />
    <path
       inkscape:connector-curvature="0"
       id="path4223"
       style="color:#000000;text-indent:0;text-decoration:none;text-decoration-line:none;text-transform:none;block-progression:tb;fill:#000000;fill-opacity:1"
       d="m 9.0000227,13.000032 c 5.0000223,-0.0025 5.0000223,3.200514 5.0000223,3.200514 L 14.000045,17 4,17 4,16.200546 c 0,0 0,-3.197864 5.0000227,-3.200564 z" />
    <path
       inkscape:connector-curvature="0"
       id="path4225"
       style="color:#000000;text-indent:0;text-decoration:none;text-decoration-line:none;text-transform:none;block-progression:tb;fill:#000000;fill-opacity:1"
       d="m 16.5,4.9999817 c 1.38075,0 2.5,1.1193124 2.5,2.5000001 0,1.3806875 -1.11925,2.5 -2.5,2.5 -1.380688,0 -2.5,-1.1193125 -2.5,-2.5 0,-1.3806877 1.119312,-2.5000001 2.5,-2.5000001 z" />
    <path
       inkscape:connector-curvature="0"
       id="path4227"
       style="color:#000000;text-indent:0;text-decoration:none;text-decoration-line:none;text-transform:none;block-progression:tb;fill:#000000;fill-opacity:1"
       d="m 16.500016,10.999986 c 3.500016,-0.0015 3.500016,2.400511 3.500016,2.400511 L 20.000032,14 13,14 13,13.400497 c 0,0 0,-2.398411 3.500166,-2.400411 z" />
  </g>
  <g
     id="g4213"
     style="fill:#ffffff;fill-opacity:1">
    <path
       d="M 8.9999999,6.0000001 C 10.65684,6.0000001 12,7.34322 12,8.9999998 12,10.65678 10.65684,12 8.9999999,12 7.34316,12 6,10.65678 6,8.9999998 6,7.34322 7.34316,6.0000001 8.9999999,6.0000001 Z"
       style="color:#000000;text-indent:0;text-decoration:none;text-decoration-line:none;text-transform:none;block-progression:tb;fill:#ffffff;fill-opacity:1"
       id="path4471"
       inkscape:connector-curvature="0" />
    <path
       d="m 9.0000227,13.000032 c 5.0000223,-0.0025 5.0000223,3.200514 5.0000223,3.200514 L 14.000045,17 4,17 4,16.200546 c 0,0 0,-3.197864 5.0000227,-3.200564 z"
       style="color:#000000;text-indent:0;text-decoration:none;text-decoration-line:none;text-transform:none;block-progression:tb;fill:#ffffff;fill-opacity:1"
       id="path6174-8"
       inkscape:connector-curvature="0" />
    <path
       d="m 16.5,4.9999817 c 1.38075,0 2.5,1.1193124 2.5,2.5000001 0,1.3806875 -1.11925,2.5 -2.5,2.5 -1.380688,0 -2.5,-1.1193125 -2.5,-2.5 0,-1.3806877 1.119312,-2.5000001 2.5,-2.5000001 z"
       style="color:#000000;text-indent:0;text-decoration:none;text-decoration-line:none;text-transform:none;block-progression:tb;fill:#ffffff;fill-opacity:1"
       id="path4485"
       inkscape:connector-curvature="0" />
    <path
       d="m 16.500016,10.999986 c 3.500016,-0.0015 3.500016,2.400511 3.500016,2.400511 L 20.000032,14 13,14 13,13.400497 c 0,0 0,-2.398411 3.500166,-2.400411 z"
       style="color:#000000;text-indent:0;text-decoration:none;text-decoration-line:none;text-transform:none;block-progression:tb;fill:#ffffff;fill-opacity:1"
       id="path4487"
       inkscape:connector-curvature="0" />
  </g>
</svg>

<?xml version="1.0" encoding="UTF-8" standalone="no"?>
<svg id="svg2817" xmlns:rdf="http://www.w3.org/1999/02/22-rdf-syntax-ns#" xmlns="http://www.w3.org/2000/svg" height="24" width="24" version="1.0" xmlns:cc="http://creativecommons.org/ns#" xmlns:dc="http://purl.org/dc/elements/1.1/">
 <metadata id="metadata57">
  <rdf:RDF>
   <cc:Work rdf:about="">
    <dc:format>image/svg+xml</dc:format>
    <dc:type rdf:resource="http://purl.org/dc/dcmitype/StillImage"/>
    <dc:title/>
   </cc:Work>
  </rdf:RDF>
 </metadata>
 <g id="g4174" transform="translate(1,2)">
  <rect id="rect4172" opacity=".2" rx="1" ry="1" height="17" width="20" y="2.5" x="1"/>
  <rect id="rect4165" rx="1" ry="1" height="17" width="20" y="2" x="1" fill="#816130"/>
  <g id="g4219" opacity=".2" transform="translate(-1 -.5)">
   <path id="path4221" style="color:#000000;block-progression:tb;text-decoration-line:none;text-transform:none;text-indent:0" d="m9 6c1.657 0 3 1.3432 3 3 0 1.657-1.343 3-3 3-1.6568 0-3-1.343-3-3 0-1.6568 1.3432-3 3-3z"/>
   <path id="path4223" style="color:#000000;block-progression:tb;text-decoration-line:none;text-transform:none;text-indent:0" d="m9 13c5-0.0025 5 3.2005 5 3.2005v0.8h-10v-0.799s0-3.1979 5-3.2006z"/>
   <path id="path4225" style="color:#000000;block-progression:tb;text-decoration-line:none;text-transform:none;text-indent:0" d="m16.5 5c1.3808 0 2.5 1.1193 2.5 2.5s-1.1192 2.5-2.5 2.5c-1.3807 0-2.5-1.1193-2.5-2.5s1.1193-2.5 2.5-2.5z"/>
   <path id="path4227" style="color:#000000;block-progression:tb;text-decoration-line:none;text-transform:none;text-indent:0" d="m16.5 11c3.5-0.0015 3.5 2.4005 3.5 2.4005v0.6h-7v-0.6s0-2.3984 3.5002-2.4004z"/>
  </g>
  <g id="g4213" fill="#fff" transform="translate(-1,-1)">
   <path id="path4471" style="color:#000000;block-progression:tb;text-decoration-line:none;text-transform:none;text-indent:0" d="m9 6c1.657 0 3 1.3432 3 3 0 1.657-1.343 3-3 3-1.6568 0-3-1.343-3-3 0-1.6568 1.3432-3 3-3z"/>
   <path id="path6174-8" style="color:#000000;block-progression:tb;text-decoration-line:none;text-transform:none;text-indent:0" d="m9 13c5-0.0025 5 3.2005 5 3.2005v0.8h-10v-0.799s0-3.1979 5-3.2006z"/>
   <path id="path4485" style="color:#000000;block-progression:tb;text-decoration-line:none;text-transform:none;text-indent:0" d="m16.5 5c1.3808 0 2.5 1.1193 2.5 2.5s-1.1192 2.5-2.5 2.5c-1.3807 0-2.5-1.1193-2.5-2.5s1.1193-2.5 2.5-2.5z"/>
   <path id="path4487" style="color:#000000;block-progression:tb;text-decoration-line:none;text-transform:none;text-indent:0" d="m16.5 11c3.5-0.0015 3.5 2.4005 3.5 2.4005v0.6h-7v-0.6s0-2.3984 3.5002-2.4004z"/>
  </g>
  <path id="rect4167" opacity=".2" d="m2 2c-0.554 0-1 0.446-1 1v0.5c0-0.554 0.446-1 1-1h18c0.554 0 1 0.446 1 1v-0.5c0-0.554-0.446-1-1-1h-18z" fill="#fff"/>
 </g>
</svg>
